IMB-X-Files/The-Ambassadors-Assets/65f43207d485843526416711_dsg.svg

<svg fill="none" height="40" viewBox="0 0 122 40" width="122" xmlns="http://www.w3.org/2000/svg" xmlns:xlink="http://www.w3.org/1999/xlink"><clipPath id="a"><path d="m.5 0h121v40h-121z"/></clipPath><g clip-path="url(#a)" fill="#17191c"><path d="m57.9929 33.3533h6.5791v-.0042h3.6222v-14.5432h-7.2444v7.2989h-2.9569c-1.9364.0008-3.7938-.7674-5.1639-2.1357s-2.1407-3.2248-2.1424-5.1611c.0014-1.9366.7719-3.7933 2.142-5.1618 1.3702-1.3686 3.2277-2.1369 5.1643-2.1361v-7.2496c-8.0439 0-14.5632 6.5109-14.5632 14.5454 0 8.0344 6.5193 14.5474 14.5632 14.5474z"/><path clip-rule="evenodd" d="m41.8804 33.3491c-3.8594.0016-7.5614-1.5297-10.2918-4.2572-2.7305-2.7275-4.2658-6.4278-4.2683-10.2872.0028-3.8591 1.5382-7.5592 4.2686-10.28646 2.7305-2.72727 6.4323-4.25843 10.2915-4.25676v7.24962c-4.0346 0-7.3031 3.2643-7.3031 7.2947 0 4.0303 3.2685 7.2947 7.3031 7.2947z" fill-rule="evenodd"/><path d="m10.7013 4.26147h-6.57912v.0042h-3.62218v14.54433h7.24435v-7.3h2.95695c1.9365-.0008 3.7941.7675 5.1642 2.1361 1.3702 1.3685 2.1406 3.2252 2.142 5.1618-.0016 1.9364-.7722 3.7928-2.1423 5.1611s-3.2276 2.1365-5.1639 2.1357v7.2496c8.0439 0 14.5632-6.5109 14.5632-14.5454 0-8.0344-6.5193-14.54743-14.5632-14.54743zm65.1971 0h2.8425c2.3473 0 3.8551 1.73659 3.8551 4.1164 0 2.37983-1.5078 4.10483-3.8551 4.10483h-2.8425zm2.7848 7.33563c1.7261 0 2.7848-1.2875 2.7848-3.23077 0-1.9433-1.0587-3.2203-2.7848-3.2203h-1.7261v6.45007zm4.9369-7.33563h1.1627v1.28749h-1.1627zm.0577 2.29902h1.0357v5.92121h-1.0357zm2.256 6.12891h1.0588c.1847.6894.702 1.0231 1.6117 1.0231.8625 0 1.6463-.425 1.6463-1.6442v-.7702c-.4606.7471-1.151 1.0692-1.9338 1.0692-1.4271 0-2.5897-1.2644-2.5897-3.00099 0-1.72505 1.1626-2.95482 2.5897-2.95482.7828 0 1.5414.36725 1.9338 1.0346v-.8856h1.0357v5.48361c0 1.851-1.3232 2.5173-2.7166 2.5173-1.4848.001-2.4743-.7009-2.6348-1.873zm2.6002-1.1846c1.0703 0 1.7723-.8972 1.7723-2.13849 0-1.25286-.702-2.0923-1.7723-2.0923-1.0587 0-1.7492.83944-1.7492 2.0923 0 1.24239.6905 2.13849 1.7492 2.13849zm4.0398-7.24333h1.1626v1.28749h-1.1626zm.0577 2.29902h1.0357v5.92121h-1.0357zm2.8184 4.54131v-3.69033h-.9433v-.85098h.6789c.1605 0 .2644-.10283.2644-.25288v-1.70092h1.0241v1.95485h1.3012v.85098h-1.3012v3.52988c0 .5057.1375.6893.6097.6893h.8405v.851h-1.1385c-.9098.0011-1.3347-.3893-1.3347-1.3788zm3.0734-.2182c0-1.37983 1.1857-1.69043 2.1517-1.81634l1.278-.17209c.473-.06925.564-.33262.564-.60964 0-.57501-.391-1.04615-1.278-1.04615s-1.3925.41448-1.4838 1.13744h-1.0357c.127-1.18466 1.0819-1.96638 2.4975-1.96638 1.576 0 2.324.78172 2.324 2.11538v2.87398c0 .127.103.2298.242.2298h.369v.851h-.702c-.564 0-.875-.299-.875-.724v-.15c-.518.7701-1.336 1.023-2.072 1.023-1.2074.0021-1.9776-.6988-1.9776-1.745zm2.2447.9202c1.058 0 1.749-.7817 1.749-1.94222v-.41448c-.195.10284-.403.13746-.598.17209l-1.047.16054c-.8986.13746-1.2784.45957-1.2784 1.05767.0011.6097.4614.9664 1.1744.9664zm4.303-7.54233h1.036v8.22023h-1.036zm-29.5987 14.76783c0-2.5645 1.531-4.2654 3.7177-4.2654 1.9108 0 3.107 1.1847 3.3494 2.9548h-1.1175c-.2078-1.0808-.8982-2.0461-2.2319-2.0461-1.6338 0-2.6117 1.4375-2.6117 3.3462s1.0126 3.3567 2.6117 3.3567c1.3924 0 2.1521-1 2.3137-2.0818h1.1165c-.3337 2.001-1.6338 2.9894-3.4291 2.9894-2.2225.0011-3.7177-1.6893-3.7177-4.2528zm8.1363 1.8971v-3.7134h1.0356v3.6442c0 1.0346.5876 1.5645 1.4386 1.5645.8405 0 1.5992-.7356 1.5992-1.7943v-3.4144h1.0356v5.9211h-1.0356v-.9202c-.3914.7125-1.128 1.0692-1.9685 1.0692-1.2308 0-2.1049-.8163-2.1049-2.3567z"/><path d="m90.0195 17.2131h1.0357v.9202c.3683-.7251.9328-.9895 1.6232-.9895h.3337v.9769h-.4145c-.9433 0-1.5414.5866-1.5414 1.8048v3.2077h-1.0356v-5.9201z"/><path d="m93.8867 17.2131h1.0357v.9202c.3683-.7251.9328-.9895 1.6232-.9895h.3337v.9769h-.4145c-.9433 0-1.5414.5866-1.5414 1.8048v3.2077h-1.0356v-5.9201z"/><path d="m97.1774 20.1794c0-1.7817 1.0934-3.1164 2.8306-3.1164 1.474 0 2.762.8279 2.625 3.3798h-4.3853c.0692 1.0808.575 2.0125 1.7603 2.0125.864 0 1.3-.4365 1.508-1.0807h1.047c-.287 1.15-1.173 1.9086-2.555 1.9086-1.7383 0-2.8317-1.3221-2.8317-3.1048zm4.4426-.5173c-.069-1.2067-.621-1.7702-1.611-1.7702-1.0814 0-1.6102.7818-1.7372 1.7702zm1.99-2.4491h1.035v.8972c.392-.6548 1.14-1.0472 2.002-1.0472 1.289 0 2.187.8048 2.187 2.3798v3.6914h-1.036v-3.6337c0-1.0346-.587-1.575-1.461-1.575-.921 0-1.692.7471-1.692 1.7943v3.4144h-1.035zm6.144 2.9664c0-1.7702 1.117-3.1164 2.854-3.1164 1.359 0 2.348.8279 2.544 2.1846h-1.047c-.172-.8279-.748-1.3336-1.508-1.3336-1.231 0-1.772 1.0692-1.772 2.2539 0 1.1846.541 2.2643 1.772 2.2643.771 0 1.288-.4249 1.508-1.2423h1.035c-.218 1.2528-1.138 2.0923-2.543 2.0923-1.725.001-2.843-1.3326-2.843-3.1028zm7.193 4.0587c.369 0 .541-.0693.679-.425l.299-.7932-2.393-5.8058h1.115l1.784 4.4962 1.657-4.4962h1.082l-2.659 6.9558c-.288.7586-.725.9202-1.426.9202h-1.163v-.851h1.025zm-41.4743 5.4437c0-2.5644 1.5655-4.2654 3.7858-4.2654 1.9213 0 3.0955 1.1847 3.3378 2.9433h-1.1164c-.1605-1.0577-.9433-2.0346-2.2214-2.0346-1.6684 0-2.682 1.4376-2.682 3.3463 0 1.9086 1.0357 3.3567 2.6694 3.3567 1.1627 0 2.2896-.6674 2.4281-2.5519h-2.6463v-.8846h3.6599v4.1961h-.9779v-1.2874c-.5173.874-1.3693 1.4375-2.6694 1.4375-2.0021-.0011-3.5676-1.6904-3.5676-4.2549zm8.643-1.8173h1.0357v.9202c.3683-.724.9328-.9895 1.6232-.9895h.3337v.9769h-.4145c-.9433 0-1.5414.5866-1.5414 1.8048v3.2077h-1.0356v-5.9201zm3.2917 2.9663c0-1.7701 1.0587-3.1164 2.8541-3.1164 1.7953 0 2.8541 1.3452 2.8541 3.1164s-1.0588 3.1039-2.8541 3.1039c-1.7954 0-2.8541-1.3337-2.8541-3.1039zm2.853 2.2529c1.2886 0 1.7838-1.1154 1.7838-2.2644 0-1.1616-.4952-2.2539-1.7838-2.2539-1.3011 0-1.7838 1.0923-1.7838 2.2539 0 1.15.4827 2.2644 1.7838 2.2644zm3.7743-1.5047v-3.7135h1.0357v3.6442c0 1.0346.5876 1.5645 1.4386 1.5645.8405 0 1.5991-.7355 1.5991-1.7943v-3.4144h1.0357v5.9212h-1.0357v-.9202c-.3914.7124-1.128 1.0692-1.9685 1.0692-1.2297 0-2.1049-.8164-2.1049-2.3567zm6.4103-3.7145h1.036v.8971c.21-.3315.503-.6023.85-.7858s.736-.2732 1.129-.2603c1.438 0 2.589 1.2644 2.589 3.1269s-1.151 3.0923-2.589 3.0923c-.828 0-1.554-.3568-1.979-1.0347v2.8394h-1.036zm2.762 5.2087c1.128 0 1.772-.9318 1.772-2.2298s-.645-2.2644-1.772-2.2644c-1.117 0-1.773.9654-1.773 2.2539 0 1.2886.656 2.2403 1.773 2.2403z"/></g></svg>

<svg width="122" height="40" viewBox="0 0 122 40" fill="none" xmlns="http://www.w3.org/2000/svg">
<g clip-path="url(#clip0_6789_20219)">
<path d="M57.9929 33.3533H64.572V33.3491H68.1942V18.8059H60.9498V26.1048H57.9929C56.0565 26.1056 54.1991 25.3374 52.829 23.9691C51.4589 22.6008 50.6883 20.7443 50.6866 18.808C50.688 16.8714 51.4585 15.0147 52.8286 13.6462C54.1988 12.2776 56.0563 11.5093 57.9929 11.5101V4.2605C49.949 4.2605 43.4297 10.7714 43.4297 18.8059C43.4297 26.8403 49.949 33.3533 57.9929 33.3533Z" fill="#17191C"/>
<path fill-rule="evenodd" clip-rule="evenodd" d="M41.8804 33.3491C38.021 33.3507 34.319 31.8194 31.5886 29.0919C28.8581 26.3644 27.3228 22.6641 27.3203 18.8047C27.3231 14.9456 28.8585 11.2455 31.5889 8.51824C34.3194 5.79097 38.0212 4.25981 41.8804 4.26148V11.5111C37.8458 11.5111 34.5773 14.7754 34.5773 18.8058C34.5773 22.8361 37.8458 26.1005 41.8804 26.1005V33.3491Z" fill="#17191C"/>
<path d="M10.7013 4.26147H4.12218V4.26567H0.5V18.81H7.74435V11.51H10.7013C12.6378 11.5092 14.4954 12.2775 15.8655 13.6461C17.2357 15.0146 18.0061 16.8713 18.0075 18.8079C18.0059 20.7443 17.2353 22.6007 15.8652 23.969C14.4951 25.3373 12.6376 26.1055 10.7013 26.1047V33.3543C18.7452 33.3543 25.2645 26.8434 25.2645 18.8089C25.2645 10.7745 18.7452 4.26147 10.7013 4.26147ZM75.8984 4.26147H78.7409C81.0882 4.26147 82.596 5.99806 82.596 8.37787C82.596 10.7577 81.0882 12.4827 78.7409 12.4827H75.8984V4.26147ZM78.6832 11.5971C80.4093 11.5971 81.468 10.3096 81.468 8.36633C81.468 6.42303 80.4093 5.14603 78.6832 5.14603H76.9571V11.5961L78.6832 11.5971ZM83.6201 4.26147H84.7828V5.54896H83.6201V4.26147ZM83.6778 6.56049H84.7135V12.4817H83.6778V6.56049ZM85.9338 12.6894H86.9926C87.1773 13.3788 87.6946 13.7125 88.6043 13.7125C89.4668 13.7125 90.2506 13.2875 90.2506 12.0683V11.2981C89.79 12.0452 89.0996 12.3673 88.3168 12.3673C86.8897 12.3673 85.7271 11.1029 85.7271 9.36631C85.7271 7.64126 86.8897 6.41149 88.3168 6.41149C89.0996 6.41149 89.8582 6.77874 90.2506 7.44609V6.56049H91.2863V12.0441C91.2863 13.8951 89.9631 14.5614 88.5697 14.5614C87.0849 14.5624 86.0954 13.8605 85.9349 12.6884L85.9338 12.6894ZM88.534 11.5048C89.6043 11.5048 90.3063 10.6076 90.3063 9.36631C90.3063 8.11345 89.6043 7.27401 88.534 7.27401C87.4753 7.27401 86.7848 8.11345 86.7848 9.36631C86.7848 10.6087 87.4753 11.5048 88.534 11.5048ZM92.5738 4.26147H93.7364V5.54896H92.5738V4.26147ZM92.6315 6.56049H93.6672V12.4817H92.6315V6.56049ZM95.4499 11.1018V7.41147H94.5066V6.56049H95.1855C95.346 6.56049 95.4499 6.45766 95.4499 6.30761V4.60669H96.474V6.56154H97.7752V7.41252H96.474V10.9424C96.474 11.4481 96.6115 11.6317 97.0837 11.6317H97.9242V12.4827H96.7857C95.8759 12.4838 95.451 12.0934 95.451 11.1039L95.4499 11.1018ZM98.5233 10.8836C98.5233 9.50377 99.709 9.19317 100.675 9.06726L101.953 8.89517C102.426 8.82592 102.517 8.56255 102.517 8.28553C102.517 7.71052 102.126 7.23938 101.239 7.23938C100.352 7.23938 99.8465 7.65386 99.7552 8.37682H98.7195C98.8465 7.19216 99.8014 6.41044 101.217 6.41044C102.793 6.41044 103.541 7.19216 103.541 8.52582V11.3998C103.541 11.5268 103.644 11.6296 103.783 11.6296H104.152V12.4806H103.45C102.886 12.4806 102.575 12.1816 102.575 11.7566V11.6066C102.057 12.3767 101.239 12.6296 100.503 12.6296C99.2956 12.6317 98.5254 11.9308 98.5254 10.8846L98.5233 10.8836ZM100.768 11.8038C101.826 11.8038 102.517 11.0221 102.517 9.86158V9.4471C102.322 9.54994 102.114 9.58456 101.919 9.61919L100.872 9.77973C99.9734 9.91719 99.5936 10.2393 99.5936 10.8374C99.5947 11.4471 100.055 11.8038 100.768 11.8038ZM105.071 4.26147H106.107V12.4817H105.071V4.26147ZM75.4723 19.0293C75.4723 16.4648 77.0033 14.7639 79.19 14.7639C81.1008 14.7639 82.297 15.9486 82.5394 17.7187H81.4219C81.2141 16.6379 80.5237 15.6726 79.19 15.6726C77.5562 15.6726 76.5783 17.1101 76.5783 19.0188C76.5783 20.9275 77.5909 22.3755 79.19 22.3755C80.5824 22.3755 81.3421 21.3755 81.5037 20.2937H82.6202C82.2865 22.2947 80.9864 23.2831 79.1911 23.2831C76.9686 23.2842 75.4734 21.5938 75.4734 19.0303L75.4723 19.0293ZM83.6086 20.9264V17.213H84.6442V20.8572C84.6442 21.8918 85.2318 22.4217 86.0828 22.4217C86.9233 22.4217 87.682 21.6861 87.682 20.6274V17.213H88.7176V23.1341H87.682V22.2139C87.2906 22.9264 86.554 23.2831 85.7135 23.2831C84.4827 23.2831 83.6086 22.4668 83.6086 20.9264Z" fill="#17191C"/>
<path d="M90.0195 17.2131H91.0552V18.1333C91.4235 17.4082 91.988 17.1438 92.6784 17.1438H93.0121V18.1207H92.5976C91.6543 18.1207 91.0562 18.7073 91.0562 19.9255V23.1332H90.0206V17.2131H90.0195Z" fill="#17191C"/>
<path d="M93.8867 17.2131H94.9224V18.1333C95.2907 17.4082 95.8552 17.1438 96.5456 17.1438H96.8793V18.1207H96.4648C95.5215 18.1207 94.9234 18.7073 94.9234 19.9255V23.1332H93.8878V17.2131H93.8867Z" fill="#17191C"/>
<path d="M97.1774 20.1794C97.1774 18.3977 98.2708 17.063 100.008 17.063C101.482 17.063 102.77 17.8909 102.633 20.4428H98.2477C98.3169 21.5236 98.8227 22.4553 100.008 22.4553C100.872 22.4553 101.308 22.0188 101.516 21.3746H102.563C102.276 22.5246 101.39 23.2832 100.008 23.2832C98.2697 23.2832 97.1763 21.9611 97.1763 20.1784L97.1774 20.1794ZM101.62 19.6621C101.551 18.4554 100.999 17.8919 100.009 17.8919C98.9276 17.8919 98.3988 18.6737 98.2718 19.6621H101.62ZM103.61 17.213H104.645V18.1102C105.037 17.4554 105.785 17.063 106.647 17.063C107.936 17.063 108.834 17.8678 108.834 19.4428V23.1342H107.798V19.5005C107.798 18.4659 107.211 17.9255 106.337 17.9255C105.416 17.9255 104.645 18.6726 104.645 19.7198V23.1342H103.61V17.213ZM109.754 20.1794C109.754 18.4092 110.871 17.063 112.608 17.063C113.967 17.063 114.956 17.8909 115.152 19.2476H114.105C113.933 18.4197 113.357 17.914 112.597 17.914C111.366 17.914 110.825 18.9832 110.825 20.1679C110.825 21.3525 111.366 22.4322 112.597 22.4322C113.368 22.4322 113.885 22.0073 114.105 21.1899H115.14C114.922 22.4427 114.002 23.2822 112.597 23.2822C110.872 23.2832 109.754 21.9496 109.754 20.1794ZM116.947 24.2381C117.316 24.2381 117.488 24.1688 117.626 23.8131L117.925 23.0199L115.532 17.2141H116.647L118.431 21.7103L120.088 17.2141H121.17L118.511 24.1699C118.223 24.9285 117.786 25.0901 117.085 25.0901H115.922V24.2391H116.947V24.2381ZM75.4727 29.6818C75.4727 27.1174 77.0382 25.4164 79.2585 25.4164C81.1798 25.4164 82.354 26.6011 82.5963 28.3597H81.4799C81.3194 27.302 80.5366 26.3251 79.2585 26.3251C77.5901 26.3251 76.5765 27.7627 76.5765 29.6714C76.5765 31.58 77.6122 33.0281 79.2459 33.0281C80.4086 33.0281 81.5355 32.3607 81.674 30.4762H79.0277V29.5916H82.6876V33.7877H81.7097V32.5003C81.1924 33.3743 80.3404 33.9378 79.0403 33.9378C77.0382 33.9367 75.4727 32.2474 75.4727 29.6829V29.6818ZM84.1157 27.8645H85.1514V28.7847C85.5197 28.0607 86.0842 27.7952 86.7746 27.7952H87.1083V28.7721H86.6938C85.7505 28.7721 85.1524 29.3587 85.1524 30.5769V33.7846H84.1168V27.8645H84.1157ZM87.4074 30.8308C87.4074 29.0607 88.4661 27.7144 90.2615 27.7144C92.0568 27.7144 93.1156 29.0596 93.1156 30.8308C93.1156 32.602 92.0568 33.9347 90.2615 33.9347C88.4661 33.9347 87.4074 32.601 87.4074 30.8308ZM90.2604 33.0837C91.549 33.0837 92.0442 31.9683 92.0442 30.8193C92.0442 29.6577 91.549 28.5654 90.2604 28.5654C88.9593 28.5654 88.4766 29.6577 88.4766 30.8193C88.4766 31.9693 88.9593 33.0837 90.2604 33.0837ZM94.0347 31.579V27.8655H95.0704V31.5097C95.0704 32.5443 95.658 33.0742 96.509 33.0742C97.3495 33.0742 98.1081 32.3387 98.1081 31.2799V27.8655H99.1438V33.7867H98.1081V32.8665C97.7167 33.5789 96.9801 33.9357 96.1396 33.9357C94.9099 33.9357 94.0347 33.1193 94.0347 31.579ZM100.445 27.8645H101.481V28.7616C101.691 28.4301 101.984 28.1593 102.331 27.9758C102.678 27.7923 103.067 27.7026 103.46 27.7155C104.898 27.7155 106.049 28.9799 106.049 30.8424C106.049 32.7049 104.898 33.9347 103.46 33.9347C102.632 33.9347 101.906 33.5779 101.481 32.9V35.7394H100.445V27.8645ZM103.207 33.0732C104.335 33.0732 104.979 32.1414 104.979 30.8434C104.979 29.5454 104.334 28.579 103.207 28.579C102.09 28.579 101.434 29.5444 101.434 30.8329C101.434 32.1215 102.09 33.0732 103.207 33.0732Z" fill="#17191C"/>
</g>
<defs>
<clipPath id="clip0_6789_20219">
<rect width="121" height="40" fill="white" transform="translate(0.5)"/>
</clipPath>
</defs>
</svg>
